X:053 
T:East Of Galway*  
F:file ID: cre.5/053east_g
M:6/8
Q:160
R:jig
K:G
B:CRE5.032 (gan ainm)
E|FDD A2d|ded cAG|FDD A2d|cAG AGE|
FDD A2d|ded cAG|faf ged|cAG AG:|
B|Add f2a|daf ge^c|Add f2a|ged cAG|
Add f2a|daf g2a|faf ged|cAG AG:|

%%%

